X:1
T:James Gibb editions
T:Domine convertere - Lasso
T:#
%%score [ 1 2 3 4 ]
L:1/8
Q:1/4=168
M:none
K:G
V:1 treble nm="Soprano"
V:2 treble nm="Alto"
V:3 treble-8 nm="Tenor"
V:4 bass nm="Bass"
V:1
"^Domine convertere""^Orlando di Lasso\n(1530-94)" z8 B8- | B4 c4 B8 | z4 e4 d4 c4 | (B6 AG A8) | %4
w: Do\-|* mi- ne,|con- ver- te-|re, * * *|
 F8 G4 E4 | B8 (G6 FE | F4) E4 (F2 G2 A2 E2 | G2 F2 A4) G4 (B4- | B4 A8) ^G4 | A4 =f4 e4 d4 | %10
w: con- ver- te-|re, Do\- * *|* mi- ne, * * *|* * * con- ver\-|* * te-|re, et e- ri-|
 c4 B6 B2 B4 | A8 ^G8 | z4 c8 B4 | A8 ^G4 e4- | e4 d4 c8 | B4 c8 B4 | A8 G4 e4- | e4 d4 G8 | %18
w: pe a- ni- mam|me- am:|Sal- vum|me fac, sal\-|* vum me|fac, sal- vum|me fac, sal\-|* vum me|
 G8 G8 | G4 A4 B4 B4 | (G6 A2 B4) A4 | c8 B8 | B8 B8 | B4 c4 d4 d4 | B6 B2 d8 | c8 B8 | %26
w: fac pro-|pter~ mi- se- ri-|cor\- * * di-|am~ tu-|am,~ pro-|pter~ mi- se- ri-|cor- di- am~|tu- am,~|
 z4 A4 c4 d4 | e4 A4 (A6 B2 | c4 B2 A2 B4) A4 | ^G4 (A6 GF G4) | A4 c8 B4 | A8 ^G4 e4- | e4 d4 c8 | %33
w: pro- pter~ mi-|se- ri- cor\- *|* * * * di-|am~ tu\- * * *|am.~ Sal- vum~|me fac, sal\-|* vum~ me~|
 B4 c8 B4 | A8 G4 e4- | e4 d4 G8 | G8 G8 | G4 A4 B4 B4 | (G6 A2 B4) A4 | c8 B8 | B8 B8 | %41
w: fac,~ sal- vum|me fac, sal\-|* vum me|fac pro-|pter mi- se- ri-|cor\- * * di-|am tu-|am, pro-|
 B4 c4 d4 d4 | B6 B2 d8 | c8 B8 | z4 A4 c4 d4 | e4 A4 (A6 B2 | c4 B2 A2 B4) A4 | ^G4 (A6 GF G4) | %48
w: pter mi- se- ri-|cor- di- am|tu- am,|pro- pter mi-|se- ri- cor\- *|* * * * di-|am tu\- * * *|
 A16 |] %49
w: am.|
V:2
 E12 ^D4 | E8 z4 E4 | D4 C4 B,4 (E4- | E2 F2 G2 E2 F4) E4- | E4 ^D4 E4 G4- | G4 F4 E4 E4 | %6
w: Do- mi-|ne, con-|ver- te- re, con\-|* * * * * ver\-|* te- re, Do\-|* mi- ne con-|
 D4 G,4 A,8 | z4 (E6 F2 G4- | G4) E8 E4 | C4 C4 G4 =F4 | E8 E6 E2 | C4 D4 E8 | z4 G8 G4 | %13
w: ver- te- re,|con\- * *|* ver- te-|re, et e- ri-|pe a- ni-|mam me- am:|Sal- vum|
 E8 E4 G4- | G4 ^F4 A8 | ^G4 A8 =G4 | =F8 E8 | G8 E8 | D8 C8 | z8 D8 | D4 E4 F4 F4 | G8 G4 G4 | %22
w: me fac, sal\-|* vum me|fac, sal- vum|me fac,|sal- vum|me fac|pro-|pter mi- se- ri-|cor- di- am~|
 F8 ^G8 | z8 F8 | F4 G4 A4 B4 | (A2 E2 A8) G4 | E8 A4 G4 | z4 E4 E4 F4 | G8 G4 E4- | E2 E2 D4 E8 | %30
w: tu- am,~|pro-|pter~ mi- se- ri-|cor\- * * di-|am~ tu- am,~|pro- pter~ mi-|se- ri- cor\-|* di- am~ tu-|
 E4 G8 G4 | E8 E4 G4- | G4 F4 A8 | ^G4 A8 =G4 | =F8 E8 | G8 E8 | D8 C8 | z8 D8 | D4 E4 F4 F4 | %39
w: am.~ Sal- vum~|me~ fac,~ sal\-|* vum~ me~|fac,~ sal- vum~|me~ fac,~|sal- vum~|me~ fac~|pro-|pter mi- se- ri-|
 G8 G4 G4 | F8 ^G8 | z8 F8 | F4 G4 A4 B4 | (A2 E2 A8) G4 | E8 A4 G4 | z4 E4 E4 F4 | G8 G4 E4- | %47
w: cor- di- am|tu- am,|pro-|pter mi- se- ri-|cor\- * * di-|am tu- am,|pro- pter mi-|se- ri- cor\-|
 E2 E2 D4 E8 | ^C16 |] %49
w: * di- am tu-|am.|
V:3
 z16 | z16 | z16 | z4 e4 d4 c4 | B16 | z4 B8 c4 | B8 z4 e4 | d4 c4 B4 e4 | d4 c4 B8 | A8 c4 A4 | %10
w: |||Con- ver- te-|re,|Do- mi-|ne, con-|ver- te- re, con-|ver- te- re,|et e- ri-|
 A4 ^G6 G2 G4 | A8 B8 | e12 d4 | c8 B4 c4- | c4 A4 e8 | e8 e8 | c4 (c6 B2 A4) | G8 z4 c4- | %18
w: pe a- ni- mam|me- am:|Sal- vum~|me~ fac,~ sal\-|* vum~ me~|fac,~ sal-|vum~ me * *|fac,~ sal\-|
 c4 B4 e8 | c8 z4 G4 | B4 ^c4 d4 d4 | e4 e4 d4 (e4- | e2 ^d^c d4) e8- | e8 z4 B4 | d4 e4 f4 g4 | %25
w: * vum~ me~|fac~ pro-|pter~ mi- se- ri-|cor- di- am~ tu\-|* * * * am,|* pro-|pter~ mi- se- ri-|
 e6 e2 e8 | (c6 d2 e4) d4 | A8 c4 d4 | e8 d4 c4 | B4 A4 B8 | A4 e8 d4 | c8 B4 c4- | c4 A4 e8 | %33
w: cor- di- am~|tu\- * * am,|pro- pter mi-|se- ri- cor-|di- am~ tu-|am. Sal- vum~|me~ fac, sal\-|* vum~ me~|
 e8 e8 | c4 (c6 B2 A4) | G8 z4 c4- | c4 B4 e8 | c8 z4 G4 | B4 ^c4 d4 d4 | e4 e4 d4 (e4- | %40
w: fac, sal-|vum~ me * *|fac,~ sal\-|* vum~ me~|fac~ pro-|pter mi- se- ri-|cor- di- am tu\-|
 e2 ^d^c d4) e8- | e8 z4 B4 | d4 e4 f4 g4 | e6 e2 e8 | (c6 d2 e4) d4 | A8 c4 d4 | e8 d4 c4 | %47
w: * * * * am,|* pro-|pter~ mi- se- ri-|cor- di- am|tu\- * * am,|pro- pter mi-|se- ri- cor-|
 B4 A4 B8 | A16 |] %49
w: di- am tu-|am.~|
V:4
 z16 | z16 | z16 | z16 | z8 E,8- | E,4 ^D,4 E,8 | z4 E,4 =D,4 C,4 | B,,4 A,,4 (E,6 F,2 | %8
w: ||||Do\-|* mi- ne,|con- ver- te-|re, con- ver\- *|
 G,4) A,4 E,8 | =F,8 C,4 D,4 | A,,4 E,6 E,2 E,4 | =F,8 E,8 | z4 C8 G,4 | A,8 E,4 C,4- | %14
w: * te- re,|et e- ri-|pe a- ni- mam|me- am:|Sal- vum~|me~ fac,~ sal\-|
 C,4 D,4 A,,8 | E,4 A,8 E,4 | =F,8 C,4 C4- | C4 B,4 C8 | G,8 z4 C,4 | E,4 F,4 G,8- | %20
w: * vum~ me~|fac,~ sal- vum~|me~ fac,~ sal\-|* vum~ me~|fac pro-|pter mi- se\-|
 G,4 E,4 B,,4 D,4 | (C,2 D,2 E,2 F,2 G,4) E,4 | B,8 z4 E,4 | =G,4 A,4 B,8- | B,4 E,4 D,4 G,4 | %25
w: * ri- cor- di-|am * * * * tu-|am, pro-|pter mi- se\-|* ri- cor- di-|
 A,4 A,,4 E,8 | A,8 A,4 B,4 | (C6 B,2 A,4) D,4 | (C,2 D,2 E,2 F,2 G,4) A,4 | E,4 =F,4 E,8 | %30
w: am tu- am,|pro- pter mi-|se\- * * ri-|cor\- * * * * di-|am~ tu- am.|
 C12 G,4 | A,8 E,4 C,4- | C,4 D,4 A,,8 | E,4 A,8 E,4 | =F,8 C,4 C4- | C4 B,4 C8 | G,8 z4 C,4 | %37
w: Sal- vum|me fac, sal\-|* vum me|fac, sal- vu~|m~ fac, sal\-|* vum~ me~|fa~ pro-|
 E,4 F,4 G,8- | G,4 E,4 B,,4 D,4 | (C,2 D,2 E,2 F,2 G,4) E,4 | B,8 z4 E,4 | =G,4 A,4 B,8- | %42
w: pter~ mi- se\-|* ri- cor- di-|am * * * * tu-|am, pro-|pter mi- se\-|
 B,4 E,4 D,4 G,4 | A,4 A,,4 E,8 | A,8 A,4 B,4 | (C6 B,2 A,4) D,4 | (C,2 D,2 E,2 F,2 G,4) A,4 | %47
w: * ri- cor- di-|am tu- am,|pro- pter mi-|se\- * * ri-|cor\- * * * * di-|
 E,4 =F,4 (E,8 | A,,16) |] %49
w: am tu- am.||

